icons/arrow-circle-downright.svg

<svg width="24" height="24" viewBox="0 0 24 24" fill="none" xmlns="http://www.w3.org/2000/svg">
<path fill-rule="evenodd" clip-rule="evenodd" d="M20.25 12C20.25 7.44365 16.5563 3.75 12 3.75C7.44365 3.75 3.75 7.44365 3.75 12C3.75 16.5563 7.44365 20.25 12 20.25C16.5563 20.25 20.25 16.5563 20.25 12ZM12 2.25C17.3848 2.25 21.75 6.61522 21.75 12C21.75 17.3848 17.3848 21.75 12 21.75C6.61522 21.75 2.25 17.3848 2.25 12C2.25 6.61522 6.61522 2.25 12 2.25Z" fill="black"/>
<path fill-rule="evenodd" clip-rule="evenodd" d="M9.16248 9.54962C9.45537 9.25672 9.93025 9.25672 10.2231 9.54962L14.89 14.2165C15.1829 14.5094 15.1829 14.9843 14.89 15.2772C14.5972 15.5701 14.1223 15.5701 13.8294 15.2772L9.16248 10.6103C8.86959 10.3174 8.86959 9.84251 9.16248 9.54962Z" fill="black"/>
<path fill-rule="evenodd" clip-rule="evenodd" d="M14.6426 10.0371C15.0568 10.0371 15.3926 10.3729 15.3926 10.7871L15.3926 14.3226C15.3926 15.0197 14.8447 15.5676 14.1476 15.5676L10.6121 15.5676C10.1979 15.5676 9.86207 15.2318 9.86207 14.8176C9.86207 14.4034 10.1979 14.0676 10.6121 14.0676L13.8926 14.0676L13.8926 10.7871C13.8926 10.3729 14.2284 10.0371 14.6426 10.0371Z" fill="black"/>
</svg>

<svg xmlns="http://www.w3.org/2000/svg" fill="none" viewBox="0 0 24 24">
  <path fill="#000" fill-rule="evenodd" d="M20.25 12a8.25 8.25 0 1 0-16.5 0 8.25 8.25 0 0 0 16.5 0ZM12 2.25c5.385 0 9.75 4.365 9.75 9.75s-4.365 9.75-9.75 9.75S2.25 17.385 2.25 12 6.615 2.25 12 2.25Z" clip-rule="evenodd"/>
  <path fill="#000" fill-rule="evenodd" d="M9.162 9.55a.75.75 0 0 1 1.061 0l4.667 4.666a.75.75 0 0 1-1.06 1.061L9.161 10.61a.75.75 0 0 1 0-1.06Z" clip-rule="evenodd"/>
  <path fill="#000" fill-rule="evenodd" d="M14.643 10.037a.75.75 0 0 1 .75.75v3.536c0 .697-.548 1.245-1.245 1.245h-3.536a.75.75 0 0 1 0-1.5h3.28v-3.28a.75.75 0 0 1 .75-.75Z" clip-rule="evenodd"/>
</svg>
